X:1
T:Title
%%score { ( 1 2 ) | ( 3 4 ) }
L:1/8
Q:1/4=96
M:4/4
K:D
V:1 treble nm="Grand Piano"
V:2 treble 
V:3 bass 
V:4 bass 
V:1
 d6 z2 | [Fd]>d cc d2 BB | A3 G [DF]2 [CE]2 | [DF]6 z2 | %4
w: H.~R.~Christie||||
 B->[DGB-] [DGB-][DGB-] [DB]-[DGB][Dd]-[DBd] |[M:3/4] [DFA]>[FA] [EA][EA] [FA]2 | %6
w: ||
[M:1/4] [DFA][DFd] |[M:4/4] c3 d c2 B2 | A6 z2 | E3 ^D E2 F2 | G3 F E4 | F3 E F2 G2 | A3 G F4 | %13
w: |||||||
 d6 z2 | [Fd]>d cc d2 BB | A3 d [Ec]2 [Ge]2 |[M:9/8] d6- d z z |] %17
w: ||||
V:2
 F>G AB A2 [Ge]2 | x8 | x8 | A,4 z4 | [DG]2 z2 .F2 .A2 |[M:3/4] x6 |[M:1/4] x2 |[M:4/4] x8 | %8
 [A,C]>D EF G2 z2 | x8 | x8 | x8 | x8 | F>G AB A2 [Ge]2 | x8 | x8 |[M:9/8] F>FG =F ^F2- F z z |] %17
V:3
 [D,A,]>[E,A,] [F,D][G,D] A,2 [A,,A,]2 | z z/[K:treble] F/ EE F2 [G,DG][G,DG] | %2
 [A,DF]3[K:bass] [A,E] [A,,A,]2 [A,,A,]2 | z2 z A,- A,2 z2 | A,,>A,, B,,C, D,E,F,G, | %5
[M:3/4] z z/ D/ CC D2 |[M:1/4] D,B,, |[M:4/4] [E,A,E]3 [E,B,E] [E,A,E]2 [E,^G,D]2 | %8
 z z/ B,/[K:treble] CD E2 z2 | C3 =C ^C2 D2 | E3 D C4 | D3 C D2 E2 | F3 E D4 | %13
 [D,A,]>[E,A,] [F,D][G,D] [A,D]2 [A,,A,]2 | z z/[K:treble] F/ EE F2 [G,DG][G,DG] | %15
 [A,DF]3 [A,F][K:bass] [A,,A,]2 [A,,A,]2 |[M:9/8] .A,3 z3 z3 |] %17
V:4
 x8 | [D,A,]2[K:treble] z2 z4 | x3[K:bass] x5 | D,>D, .F,2 D,2 z2 | x8 |[M:3/4] A,2 z2 z2 | %6
[M:1/4] x2 |[M:4/4] x8 | A,,6[K:treble] z2 | x8 | x8 | x8 | x8 | x8 | [D,A,]2[K:treble] z2 z4 | %15
 x4[K:bass] x4 |[M:9/8] D,->[D,-A,][D,-B,] [D,-^G,] [D,A,]2- [D,A,] z z |] %17

